X:109
T:Jolly Tinker
M:C
L:1/8
K:A Mixolydian
A3B G3B|A3f gedB|A3B G3B|[1 dBGB dedB:|[2 dBGB d2Bd|]!
edef g2ef|g2af gedg|edeg a2bg|a2bg aged:|!
eaag edBd|eaag egdg|eaag efge|dBGB d2Bd|!
eaag eaag|eaag egdg|eaag efge|dBGB d2Bd|]!
edgd edgd|edgd e2Bd|edef gfge|[1 dBGB d2Bd:|[2 dBGB d2fg|]!
eAA2 edBd|edef g2fg|eAA2 efge|dBGB d2fg|!
eAA2 edBd|edef g2fg|eaag efge|dBGB d2dB|]!
